<?xml version="1.0" encoding="UTF-8"?>
<map version="1.10" tiledversion="1.12.2" orientation="orthogonal" renderorder="right-down" width="30" height="20" tilewidth="32" tileheight="32" infinite="0" nextlayerid="5" nextobjectid="11">
 <editorsettings>
  <export target="dungeon.json" format="json"/>
 </editorsettings>
 <tileset firstgid="1" source="[Base]BaseChip_pipo.tsx"/>
 <layer id="1" name="chao" width="30" height="20">
  <data encoding="csv">
6,6,6,6,6,6,6,6,6,6,6,6,6,6,6,6,6,6,6,6,6,6,6,6,6,6,6,6,6,6,
6,6,6,6,6,6,6,6,6,6,6,6,6,6,6,6,6,6,6,6,6,6,6,6,6,6,6,6,6,6,
6,6,6,6,6,6,6,6,6,6,6,6,6,6,6,6,6,6,6,6,6,6,6,6,6,6,6,6,6,6,
6,6,6,6,6,6,6,6,6,6,6,6,6,6,6,6,6,6,6,6,6,6,6,6,6,6,6,6,6,6,
6,6,6,6,6,6,6,6,6,6,6,6,6,6,6,6,6,6,6,6,6,6,6,6,6,6,6,6,6,6,
6,6,6,6,6,6,6,6,6,6,6,6,6,6,6,6,6,6,6,6,6,6,6,6,6,6,6,6,6,6,
6,6,6,6,6,6,6,6,6,6,6,6,6,6,6,6,6,6,6,6,6,6,6,6,6,6,6,6,6,6,
6,6,6,6,6,6,6,6,6,6,6,6,6,6,6,6,6,6,6,6,6,6,6,6,6,6,6,6,6,6,
6,6,6,6,6,6,6,6,6,6,6,6,6,6,6,6,6,6,6,6,6,6,6,6,6,6,6,6,6,6,
6,6,6,6,6,6,6,6,6,6,6,6,6,6,6,6,6,6,6,6,6,6,6,6,6,6,6,6,6,6,
6,6,6,6,6,6,6,6,6,6,6,6,6,6,6,6,6,6,6,6,6,6,6,6,6,6,6,6,6,6,
6,6,6,6,6,6,6,6,6,6,6,6,6,6,6,6,6,6,6,6,6,6,6,6,6,6,6,6,6,6,
6,6,6,6,6,6,6,6,6,6,6,6,6,6,6,6,6,6,6,6,6,6,6,6,6,6,6,6,6,6,
6,6,6,6,6,6,6,6,6,6,6,6,6,6,6,6,6,6,6,6,6,6,6,6,6,6,6,6,6,6,
6,6,6,6,6,6,6,6,6,6,6,6,6,6,6,6,6,6,6,6,6,6,6,6,6,6,6,6,6,6,
6,6,6,6,6,6,6,6,6,6,6,6,6,6,6,6,6,6,6,6,6,6,6,6,6,6,6,6,6,6,
6,6,6,6,6,6,6,6,6,6,6,6,6,6,6,6,6,6,6,6,6,6,6,6,6,6,6,6,6,6,
6,6,6,6,6,6,6,6,6,6,6,6,6,6,6,6,6,6,6,6,6,6,6,6,6,6,6,6,6,6,
6,6,6,6,6,6,6,6,6,6,6,6,6,6,6,6,6,6,6,6,6,6,6,6,6,6,6,6,6,6,
6,6,6,6,6,6,6,6,6,6,6,6,6,6,6,6,6,6,6,6,6,6,6,6,6,6,6,6,6,6
</data>
 </layer>
 <layer id="3" name="objetos" width="30" height="20">
  <data encoding="csv">
113,114,115,0,0,0,0,0,0,0,0,0,0,0,0,0,0,0,0,0,0,0,0,0,0,0,0,0,0,0,
121,117,123,0,66,0,0,0,0,0,0,0,0,0,0,0,0,0,0,0,0,0,0,0,0,13,14,0,0,0,
129,130,131,0,0,0,0,0,0,0,0,0,0,0,0,0,0,44,0,0,0,0,0,0,0,21,22,0,0,0,
137,138,139,13,14,0,0,0,0,0,0,0,0,13,14,0,0,0,0,0,0,0,0,0,0,0,0,0,0,0,
145,146,147,21,22,0,0,44,0,0,0,69,0,21,22,0,0,0,39,40,0,13,14,0,0,0,0,0,0,0,
66,0,0,0,0,0,0,0,0,0,0,68,0,0,0,0,0,0,0,0,0,21,22,0,0,0,0,44,0,0,
0,0,0,0,0,0,0,0,0,0,0,0,0,1055,0,66,0,0,0,0,0,0,0,0,0,46,0,0,0,0,
0,0,0,0,39,40,0,0,0,0,46,0,0,0,0,0,13,14,0,0,0,0,0,0,0,0,13,14,0,0,
0,0,0,0,0,0,0,0,1055,0,0,0,0,0,0,0,21,22,0,0,1055,0,0,0,0,0,21,22,0,0,
0,0,46,0,0,0,0,0,13,14,0,0,0,0,0,0,0,0,0,0,0,13,14,0,0,0,0,0,0,0,
0,0,0,0,0,64,0,0,21,22,0,0,0,44,0,0,0,13,14,0,0,21,22,0,0,0,0,0,0,0,
0,0,0,0,0,72,0,0,0,0,0,0,0,0,0,0,0,21,22,0,0,0,0,0,0,0,0,0,66,0,
0,0,13,14,0,0,0,0,0,0,0,0,0,0,0,0,0,0,0,0,0,0,0,0,0,44,0,0,0,0,
0,0,21,22,0,0,0,0,13,14,0,0,0,0,0,66,0,0,0,0,0,0,0,0,0,0,0,0,0,0,
0,0,0,0,0,0,0,0,21,22,0,0,1055,0,0,0,0,0,0,0,47,48,0,0,0,0,13,14,0,0,
0,0,0,0,0,0,46,0,0,0,0,0,0,0,0,13,14,0,0,0,0,0,13,14,0,65,21,22,0,0,
0,66,0,0,0,0,0,0,0,13,14,0,0,0,0,21,22,0,46,0,0,0,21,22,0,0,0,0,0,0,
0,0,0,0,47,48,0,0,0,21,22,0,0,0,0,0,0,0,0,0,0,0,0,0,0,0,0,0,0,0,
0,0,0,0,0,0,0,0,0,0,0,0,0,0,0,0,0,0,0,0,0,0,0,0,0,0,66,0,0,0,
0,0,0,0,0,0,0,0,0,0,0,0,0,0,0,0,0,0,0,0,0,0,0,0,0,0,0,0,67,0
</data>
 </layer>
 <objectgroup id="4" name="portal voltando">
  <object id="5" x="56.3191" y="107.811" width="37.0097" height="46.6644">
   <properties>
    <property name="destino" value="mapa_mundo"/>
   </properties>
  </object>
  <object id="10" x="910.761" y="613.074">
   <properties>
    <property name="destino" value="caverna2"/>
   </properties>
  </object>
 </objectgroup>
</map>
