<?xml version="1.0" encoding="UTF-8"?>
<map version="1.10" tiledversion="1.12.2" orientation="orthogonal" renderorder="right-down" width="30" height="20" tilewidth="32" tileheight="32" infinite="0" nextlayerid="9" nextobjectid="3">
 <editorsettings>
  <export target="mapa_mundo.json" format="json"/>
 </editorsettings>
 <tileset firstgid="1" source="[Base]BaseChip_pipo.tsx"/>
 <layer id="1" name="chao" width="30" height="20">
  <data encoding="csv">
3,3,3,3,3,3,3,3,3,3,3,3,3,3,3,3,3,3,3,3,3,3,3,3,3,3,3,3,3,3,
3,3,3,3,3,3,3,3,3,3,3,3,3,3,3,3,3,3,3,3,3,3,3,3,3,3,3,3,3,3,
3,3,3,3,3,3,3,3,3,3,3,3,3,3,3,3,3,3,3,3,3,3,3,3,3,3,3,3,3,3,
3,3,3,3,3,3,3,3,3,3,3,3,3,3,3,3,3,3,3,3,3,3,3,3,3,3,3,3,3,3,
3,3,3,3,3,3,3,3,3,3,3,3,3,3,3,3,3,3,3,3,3,3,3,3,3,3,3,3,3,3,
3,3,3,3,3,3,3,3,3,3,3,3,3,3,3,3,3,3,3,3,3,3,3,3,3,3,3,3,3,3,
3,3,3,3,3,3,3,3,3,8,8,8,8,8,8,8,8,8,8,8,3,3,3,3,3,3,3,3,3,3,
3,3,3,3,3,3,3,3,3,8,8,8,8,8,8,8,8,8,8,8,3,3,3,3,3,3,3,3,3,3,
3,3,3,3,3,3,3,3,3,8,8,8,8,8,8,8,8,8,8,8,3,3,3,3,3,3,3,3,3,3,
3,3,3,3,3,3,3,3,3,8,8,8,8,8,8,8,8,8,8,8,3,3,3,3,3,3,3,3,3,3,
3,3,3,3,3,3,3,3,3,8,8,8,8,8,8,8,8,8,8,8,3,3,3,3,3,3,3,3,3,3,
3,3,3,3,3,3,3,3,3,8,8,8,8,8,8,8,8,8,8,8,3,3,3,3,3,3,3,3,3,3,
3,3,3,3,3,3,3,3,3,8,8,8,8,8,8,8,8,8,8,8,3,3,3,3,3,3,3,3,3,3,
3,3,3,3,3,3,3,3,3,8,8,8,8,8,8,8,8,8,8,8,3,3,3,3,3,3,3,3,3,3,
3,3,3,3,3,3,3,3,3,3,3,3,3,3,3,3,3,3,3,3,3,3,3,3,3,3,3,3,3,3,
3,3,3,3,3,3,3,3,3,3,3,3,3,3,3,3,3,3,3,3,3,3,3,3,3,3,3,3,3,3,
3,3,3,3,3,3,3,3,3,3,3,3,3,3,3,3,3,3,3,3,3,3,3,3,3,3,3,3,3,3,
3,3,3,3,3,3,3,3,3,3,3,3,3,3,3,3,3,3,3,3,3,3,3,3,3,3,3,3,3,3,
3,3,3,3,3,3,3,3,3,3,3,3,3,3,3,3,3,3,3,3,3,3,3,3,3,3,3,3,3,3,
3,3,3,3,3,3,3,3,3,3,3,3,3,3,3,3,3,3,3,3,3,3,3,3,3,3,3,3,3,3
</data>
 </layer>
 <layer id="3" name="objetos" width="30" height="20">
  <data encoding="csv">
9,10,0,0,0,0,0,9,10,0,0,0,0,0,0,0,0,0,0,0,0,0,0,0,0,0,0,0,9,10,
17,18,0,0,0,0,0,17,18,0,0,0,0,0,9,10,0,0,0,0,0,9,10,0,0,15,16,0,17,18,
0,0,0,0,0,0,0,0,0,0,0,0,0,0,17,18,0,0,0,0,0,17,18,0,0,23,24,0,0,0,
0,0,0,0,0,15,16,0,0,0,0,0,0,0,0,0,0,0,0,0,0,0,0,0,0,0,0,9,10,0,
0,0,0,0,0,23,24,0,0,907,0,0,0,0,0,0,0,0,0,907,0,0,0,0,0,0,0,17,18,0,
0,0,9,10,0,0,0,0,0,915,0,0,0,0,0,0,940,941,0,915,0,0,9,10,0,0,0,0,0,0,
0,0,17,18,0,0,0,0,0,923,0,0,0,0,909,0,948,949,0,923,0,0,17,18,0,0,0,0,0,0,
0,0,0,0,0,0,0,0,0,0,0,0,0,0,917,0,0,0,0,0,0,0,0,0,47,48,0,0,0,0,
0,0,0,0,0,9,10,0,0,908,0,0,924,929,930,931,925,0,0,908,0,0,0,0,0,0,0,0,0,0,
0,15,16,0,0,17,18,0,0,916,0,0,932,937,938,939,933,0,0,916,0,0,0,0,0,0,0,9,10,0,
0,23,24,0,0,0,0,0,0,0,0,0,0,945,946,947,0,0,0,0,0,9,10,15,16,0,0,17,18,0,
0,0,0,0,0,0,0,0,0,907,0,0,0,0,0,0,0,0,0,907,0,17,18,23,24,0,0,0,0,0,
0,0,9,10,0,0,0,0,0,915,0,0,0,0,0,0,0,0,0,915,0,0,0,0,0,0,0,0,0,0,
0,0,17,18,0,0,0,0,0,923,0,0,0,0,0,0,0,0,0,923,0,0,0,0,0,9,10,0,0,0,
0,0,0,0,0,0,0,0,0,0,0,0,0,0,0,0,0,0,0,0,0,64,0,0,0,17,18,0,0,0,
0,0,0,15,16,0,9,10,0,0,0,0,0,0,0,0,0,0,0,0,0,72,0,0,0,0,0,0,67,0,
0,0,0,23,24,0,17,18,0,0,0,0,0,0,9,10,0,0,0,0,0,0,0,0,0,0,0,9,10,0,
0,0,0,0,0,0,0,0,0,0,0,0,0,0,17,18,0,0,0,0,9,10,0,0,15,16,0,17,18,0,
0,9,10,0,0,0,0,0,0,0,0,0,0,0,0,0,0,0,0,0,17,18,0,0,23,24,0,0,0,0,
0,17,18,0,0,0,0,0,0,0,0,0,0,0,0,0,0,0,0,0,0,0,0,0,0,0,0,0,0,0
</data>
 </layer>
 <layer id="4" name="muros" width="30" height="20">
  <data encoding="csv">
0,0,0,0,0,0,0,0,0,0,0,0,0,0,0,0,0,0,0,0,0,0,0,0,0,0,0,0,0,0,
0,0,0,0,0,0,0,0,0,0,0,0,0,0,0,0,0,0,0,0,0,0,0,0,0,0,0,0,0,0,
0,0,0,0,0,0,0,0,0,0,0,0,0,0,0,0,0,0,0,0,0,0,0,0,0,0,0,0,0,0,
0,0,0,0,0,0,0,0,0,0,0,0,0,0,0,0,0,0,0,0,0,0,0,0,0,0,0,0,0,0,
0,0,0,0,0,0,0,0,0,0,0,0,0,0,0,0,0,0,0,0,0,0,0,0,0,0,0,0,0,0,
0,0,0,0,0,0,0,0,0,0,0,0,0,0,0,0,0,0,0,0,0,0,0,0,0,0,0,0,0,0,
0,0,0,0,0,0,0,0,0,0,0,0,0,0,0,0,0,0,0,0,0,0,0,0,0,0,0,0,0,0,
0,0,0,0,0,0,0,0,0,0,0,0,0,0,0,0,0,0,0,0,0,0,0,0,0,0,0,0,0,0,
0,0,0,0,0,0,0,0,0,0,0,0,0,0,0,0,0,0,0,0,0,0,0,0,0,0,0,0,0,0,
0,0,0,0,0,0,0,0,0,0,0,0,0,0,0,0,0,0,0,0,0,0,0,0,0,0,0,0,0,0,
0,0,0,0,0,0,0,0,0,0,0,0,0,0,0,0,0,0,0,0,0,0,0,0,0,0,0,0,0,0,
0,0,0,0,0,0,0,0,0,0,0,0,0,0,0,0,0,0,0,0,0,0,0,0,0,0,0,0,0,0,
0,0,0,0,0,0,0,0,0,0,0,0,0,0,0,0,0,0,0,0,0,0,0,0,0,0,0,0,0,0,
0,0,0,0,0,0,0,0,0,0,0,0,0,0,0,0,0,0,0,0,0,0,0,0,0,0,0,0,0,0,
0,0,0,0,0,0,0,0,0,0,0,0,0,0,0,0,0,0,0,0,0,0,0,0,0,0,0,0,0,0,
0,0,0,0,0,0,0,0,0,0,0,0,0,0,0,0,0,0,0,0,0,0,0,0,0,0,0,0,0,0,
0,0,0,0,0,0,0,0,0,0,0,0,0,0,0,0,0,0,0,0,0,0,0,0,0,0,0,0,0,0,
0,0,0,0,0,0,0,0,0,0,0,0,0,0,0,0,0,0,0,0,0,0,0,0,0,0,0,0,0,0,
0,0,0,0,0,0,0,0,0,0,0,0,0,0,0,0,0,0,0,0,0,0,0,0,0,0,0,0,0,0,
0,0,0,0,0,0,0,0,0,0,0,0,0,0,0,0,0,0,0,0,0,0,0,0,0,0,0,0,0,0
</data>
 </layer>
 <objectgroup id="8" name="portais">
  <object id="1" x="910" y="498">
   <properties>
    <property name="destino" value="dungeon"/>
   </properties>
  </object>
 </objectgroup>
</map>
